X:1
T:Valzer - Cantabile
T:Valzer - Cantabile
T:C. Munier op. 192
T:by IMSLP - Pubblico dominio Scritto con MuseScore, un software libero e gratuito: http://musescore.org/it
T:by IMSLP - Pubblico dominio Scritto con MuseScore, un software libero e gratuito: http://musescore.org/it
T:by IMSLP - Pubblico dominio Scritto con MuseScore, un software libero e gratuito: http://musescore.org/it
T:by IMSLP - Pubblico dominio Scritto con MuseScore, un software libero e gratuito: http://musescore.org/it
T:by IMSLP - Pubblico dominio Scritto con MuseScore, un software libero e gratuito: http://musescore.org/it
C:C. Munier op. 192
Z:by IMSLP - Pubblico dominio Scritto con MuseScore, un software libero e gratuito: http://musescore.org/it
%%score [ ( 1 2 ) 3 4 ]
L:1/8
Q:1/4=120
M:3/4
K:C
V:1 treble nm="       1°    .\nMandolino"
V:2 treble 
V:3 treble nm="       2°     .\nMandolino"
V:4 treble-8 nm="Chitarra classica"
V:1
!f!"^Tempo di Valzer" .E2 | .F2 .E2 .A2 | .^G2 .c2 .B2 |!<(! (!>!E6 | (E6) | (E6) | E6)!<)! | %7
 !fermata!e2!f! (3(b^ge) (3(dBA)!<(! (3(^GBe) (3(AB(c)!<)! (3:2:2(e2)!pp! e) z (3(A,B,C) z"^rall:"[Q:1/4=90]!>(! D2 !fermata!^D2!>)! |: %8
!pp![Q:1/4=120]"^Valzer" (E6 |!<(! F6 | A6!<)! | (c6) |!p! (c2) B2 ^A2) | (B2 d2 f2 | e2 c2 e2 | %15
!>(! c2 ^G2 A2)!>)! | (E6 | F6 |!<(! A6!<)! | c6) | c2 B2 ^A2 | (B2 d2 f2 |!>(! e2 B2 c2 | %23
 A4)!>)! z2 ::!f!!<(! .G2 .c2 .e2!<)! | ga !>!g4 | !>!^d6 | !>!e6 |!pp! .E2 .A2 .c2 | ef !>!e4 | %30
 !>!B6 | !>!c6 |!f! .G2 .c2 .e2 | ga !>!g4 | !>!^f6 | !>!b6- | b2 .g2 .e2 |!<(! .B2 .c2 .B2 | %38
 .e2 .^d2 .^f2!<)! | !>!e6 ||!p! =f2 ^c2 (d2 | .f) z !>!G4 | e2 B2 (c2 | .e) z !>!G4 | %44
!p! A2 B2 c2 | B2 g2 f2 |!<(! A2 B2 c2!<)! | !>!e6 |!p! f2 ^c2 (d2 | .f) z !>!G4 | e2 B2 (c2 | %51
 .e) z !>!G4 |!<(! A2 d2 c2 | B2 a2 g2!<)! | f2 A2 B2 |!f! c2 z2 z2 :|!pp! (E6 | F6 | A6 | c6 | %60
 (c2) B2 ^A2) | (B2 d2 f2 | e2 c2 e2 | B2 ^G2 A2 | (E6) | _E6 | G6 | (B6) | (B2) A2 G2) | %69
 (^F2 G2 A2 |!<(! ^A2 B2 ^c2!<)! |!f! d2) z2 D2 | ._E2 .D2 .G2 | .^F2!<(! .B2 .A2 | %74
 .d2 .c2 .^f2!<)! | .a2 z2 z2 |!p!!<(! D6- | D6- | D6- | D6!<)! ||[K:G]"^Cantabile" d6- | %81
 d2 B2 A2 | G6- | (G2 F2 E2) | c6- | (c2 G2 F2) | E6- |!<(! (E2 _E2 D2)!<)! | B6- | %89
"_cresc." (B2 ^c2 d2) | A6- | A2 (B2 A2 | G2 F2 G2 | B2 A2 G2) |!f! (F6 | d6 | (B6) | %97
!<(! (B2) ^c2 d2)!<)! |{/[DA]} (!>!f6 | (f2) e2 d2) | (^c2 b2 a2 | g2 B2 ^c2 | d2) .D2 .E2 | %103
 .F2 .G2 .^G2 | .A2!<(! .^G2 .A2 | .B2 .c2 .^c2!<)! |!mf! (d6 | (d2) B2 A2) | G6- | (G2 F2 E2) | %110
 c6- | (c2 G2 F2) | E6- | (E2 _E2 D2) | B6- |!<(! (B2 c2 d2) | d6-!<)! | (d2 f2 g2) | (A2 B2 c2) | %119
 (D2 E2 F2) ||!p!"^Brillante"[Q:1/4=130] G2 B2 B2 |!<(! B2 d2 d2 | d2 A2 A2!<)! | A2 c2 c2 | %124
 c2 G2 G2 |!<(! G2 A2 ^A2!<)! | B2 c2 B2 | A2 E2 F2 |!p! D2 B2 B2 |"_cresc." B2 d2 d2 | d2 e2 e2 | %131
!<(! e2 g2 g2!<)! |!<(! g2 b2 b2!<)! | b2!<(! a2 g2 | f2 e2!<)! d2 | c2 B2 A2 | G4 z2 |!ff! (b6 | %138
 g6 | e6 | d6) |!pp! (B6 | G6 | E6) |!<(! D2 B,2 E2 | D2 A2 G2!<)! | c2 B2 e2 |!f! d2 z2 z2 | %148
 [Ddf]2 z2 z2 |!<(! [DBg]2 z2 z2!<)! | [Dca]2 z2 z2 | [Ddb]2 z2 z2 |!ff! G2 B2 d2 | %153
 [G,DBg]2 z2 z2 | !>![B,G]2 z2 z2 | !fermata![B,G]6 |] %156
V:2
 x2 | x6 | x6 | x6 | x6 | x6 | x6 | x20 |: x6 | x6 | x6 | x6 | x6 | x6 | x6 | x6 | x6 | x6 | x6 | %19
 x6 | x6 | x6 | x6 | x6 :: x6 | x6 | x6 | x6 | x6 | x6 | x6 | x6 | x6 | x6 | x6 | x6 | x6 | x6 | %38
 x6 | x6 || x6 | x6 | x6 | x6 | x6 | x6 | x6 | x6 | x6 | x6 | x6 | x6 | x6 | x6 | x6 | x6 :| x6 | %57
 x6 | x6 | x6 | x6 | x6 | x6 | x6 | x6 | x6 | x6 | x6 | x6 | x6 | x6 | x6 | x6 | x6 | x6 | x6 | %76
 x6 | x6 | x6 | x6 ||[K:G] x6 | x6 | x6 | x6 | x6 | x6 | x6 | x6 | x6 | x6 | x6 | x6 | x6 | x6 | %94
 x6 | x6 | x6 | x6 | x6 | x6 | x6 | x6 | x6 | x6 | x6 | x6 | x6 | x6 | x6 | x6 | x6 | x6 | x6 | %113
 x6 | x6 | x6 | x6 | x6 | x6 | x6 || x2 G2 G2 | G2 F2 F2 | F2 =F2 F2 | =F2 E2 E2 | E2 B,2 B,2 | %125
 x6 | x6 | x6 | x2 G2 G2 | G2 F2 F2 | F2 c2 c2 | c2 B2 B2 | B2 d2 d2 | d2 x4 | x6 | x6 | x6 | x6 | %138
 x6 | x6 | x6 | x6 | x6 | x6 | x6 | x6 | x6 | x6 | x6 | x6 | x6 | x6 | x6 | x6 | x6 | x6 |] %156
V:3
!f! .E2 | .F2 .E2 .A2 | .^G2 .c2 .B2 | E6- | E6- | E6- | E6 | %7
 [^G,E] z x2 !fermata!z2 x2 x2 z2 x2 x2 x2 x2 |:"^sotto voce" z6 | z6 | z6 | z6 | E6 | ^G6 | B6 | %15
 A2 z2 z2 | z6 | z6 | z6 | z6 | E6 | ^G6 | B2 ^G2 E2 | C4 z2 :: z6 | z6 | .G2 .A2 .B2 | %27
 .c.d .c2 z2 | z6 | z6 |!pp! E2 ^F2 G2 | AB A2 z2 | z6 | z6 |!f! .c2 .^f2 .a2 | ga !>!g4- | %36
 g2 .e2 .c2 | B2 z2 z2 | z6 | !>!G6 ||!p! =f2 ^c2 (d2 | .f) z !>!G4 | e2 B2 (c2 | .e) z !>!G4 | %44
!p! A2 B2 c2 | B2 G2 A2 | F2 G2 A2 | !>!G6 |!p! f2 ^c2 (d2 | .f) z !>!G4 | e2 B2 ((c2 | %51
 .e)) z !>!G4 | F2 ^G2 A2 | B2 c2 ^c2 | d2 ^F2 =F2 |!f! E2 z2 z2 :| z6 | z6 | z6 | z6 |!p! (E6 | %61
 ^G6 | B6 | A2) z2 z2 | z6 | z6 | z6 | z6 | (B,6 |!<(! D2 E2 ^F2!<)! | G6) | ^F2 z2 D2 | %72
 _E2 D2 G2 | ^F2 B2 A2 | .d2 .c2 .^f2 | .c2 z2 z2 | z6 | z6 | z6 | z6 || %80
[K:G]"^dolce" .B,2 .D2 .G2 | .D2 z2 z2 | .C2 .E2 .A2 | .E2 z2 z2 | .D2 .F2 .G2 | .A2 z2 z2 | %86
 .G2 .B2 .c2 | .B2 z2 z2 | G6- | (G2 A2 B2) | F6- | F2 (G2 F2 | E2 ^D2 E2 | G2 F2 E2) |!f! (D6 | %95
 F6 | G6) | (^G2 A2 B2) | (!>!A6 | (A2) G2 F2) | (G2 ^G2 A2 | B2 z2 =G2 | F2) z2 z2 | z6 | %104
 z2 .D2 .C2 | .B,2 .A,2 .G,2 | .B,2 .D2 .G2 | .D2 z2 z2 | .C2 .E2 .A2 | .E2 z2 z2 | .D2 .F2 .G2 | %111
 .A2 z2 z2 | .G2 .B2 .c2 | .B2 z2 z2 | G6- | (G2 A2 B2) | e6- | (e2 f2 g2) | (F2 G2 A2) | %119
 (D2 ^C2 =C2) || B,2 G2 G2 | G2 F2 F2 | F2 =F2 F2 | =F2 E2 E2 | E2 B,2 D2 | G2 F2 E2 | D2 A2 G2 | %127
 F2 C2 D2 | B,2 G2 G2 | G2 F2 F2 | F2 c2 c2 | c2 B2 B2 | B2 d2 d2 | d2 c2 B2 | A2 G2 F2 | %135
 E2 D2 C2 | B,4 z2 | (g6 | e6 | c6 | B6) |!pp! (G6 | E6 | C6) |!<(! B,2 B,2 E2 | D2 A2 G2!<)! | %146
 c2 B2 e2 | d2 ^c2 =c2 | B2 ^A2 =A2 | G2 F2 E2 | D2 E2 F2 | G2 z2 z2 | B,2 D2 G2 | B2 z2 z2 | %154
 [G,D]2 z4 | !fermata![G,D]6 |] %156
V:4
!f! .E2 | .F2 .E2 .A2 | .^G2 .c2 .B2 | [^GBe]2 z2 E,2 | [Ace]2 z2 E,2 | [^A^ce]2 z2 E,2 | %6
 [E,Bde]2 z2 z2 | [E,E] z x2 !fermata!z2 x2 x2 z2 x2 x2 x2 x2 |: A,2 [Ace]2 [Ace]2 | %9
 A,2 [Adf]2 [Adf]2 | F,2 [Adf]2 [Adf]2 | E,2 [Ace]2 [Ace]2 | E2 [Ace]2 [Ace]2 | %13
 E,2 [^Gde]2 [Gde]2 | E2 [^Gde]2 [Gde]2 | A,2 [Ace]2 [Ace]2 | A,2 [Ace]2 [Ace]2 | %17
 A,2 [Adf]2 [Adf]2 | F,2 [Adf]2 [Adf]2 | E,2 [Ace]2 [Ace]2 | E2 [Ace]2 [Ace]2 | %21
 E,2 [^Gde]2 [Gde]2 | %22
 E2"_by IMSPL - Pubblico dominio\nScritto con MuseScore, un software libero e gratuito: http://musescore.org/it" [^Gde]2 [Gde]2 | %23
 A,2 [Ace]2 z2 :: G2 E2 C2 | B,2 [GBf]2 [GBf]2 | G,2 [GBf]2 [GBf]2 | C2 [Gce]2 [Gce]2 | %28
!pp! E2 C2 A,2 | _A,2 [Bde]2 [Bde]2 | E,2 [^Gde]2 [Gde]2 | A,2 [Ace]2 [Ace]2 | =G2 E2 C2 | %33
 B,2 [GBe]2 [GBe]2 | A,2 [Ac_g]2 [Acg]2 | B,2 [GBe]2 [GBe]2 | B,2 [GBe]2 [GBe]2 | %37
 B,2 [AB^f]2 [ABf]2 | B,2 [AB^f]2 [ABf]2 | E,2 [GBe]2 z2 ||!p! D2 ^A,2 B,2 | G,2 [GBe]2 [GBe]2 | %42
 C2 ^D2 E2 | G,2 [Gce]2 [Gce]2 | A,2 [Ace]2 [Ace]2 | G,2 [GBf]2 [GBf]2 | D2 [GBf]2 [GBf]2 | %47
 C2 [Gce]2 [Gce]2 |!p! D2 ^A,2 B,2 | G,2 [GBf]2 [GBf]2 | C2 ^D2 E2 | G,2 [GBe]2 [GBe]2 | %52
 F,2 [Gdf]2 [Gdf]2 | G,2 [Acf]2 [Acf]2 | D2 [Acf]2 [Acf]2 |!f! C2 [Gce]2 z2 :| %56
!pp! A,2 [Ace]2 [Ace]2 | A,2 [Adf]2 [Adf]2 | F,2 [Adf]2 [Adf]2 | E,2 [Ace]2 [Ace]2 | %60
 E2 [Ace]2 [Ace]2 | E,2 [^Gde]2 [Gde]2 | E2 [^Gde]2 [Gde]2 | A,2 [Ace]2 [Ace]2 | %64
 A,2 [Ace]2 [Ace]2 | A,2 [Ac^f]2 [Acf]2 | E,2 [_B^cg]2 [B_dg]2 | D2 [G=Bg]2 [GBg]2 | %68
 G,2 [GBe]2 [GBe]2 | A,2 [Ad^f]2 [Adf]2 | A,2 [A^cg]2 [Acg]2 |!f! [DAd^f]2 z2 D2 | _E2 D2 G2 | %73
 ^F2 B2 A2 | ^F2 E2 _E2 | D2 z2 z2 | [^GB]2 z2 D2 | [Ac]2 z2 D2 | [^GB^e]2 z2 D2 | %79
 [DAc^f]2 z2 z2 ||[K:G] G,2 [GBg]2 [GBg]2 | G,2 [GBg]2 [GBg]2 | C2 [Ace]2 [Ace]2 | %83
 A,2 [Ace]2 [Ace]2 | D2 [Acf]2 [Acf]2 | F,2 [Acf]2 [Acf]2 | G,2 [Acg]2 [Acg]2 | B,2 [Acg]2 [Acg]2 | %88
 G,2 [GBe]2 [GBe]2 | E,2 [GBe]2 [GBe]2 | A,2 [Adf]2 [Adf]2 | F,2 [Adf]2 [Adf]2 | %92
 E,2 [A^cg]2 [Acg]2 | A,2 [A^cg]2 [Acg]2 |!f! D2 [Adf]2 [Adf]2 | A,2 [Adf]2 [Adf]2 | %96
 G,2 [GBe]2 [GBe]2 | D2 [^GB=f]2 [GBf]2 | A,2 [Ad^f]2 [Adf]2 | A,2 [Adf]2 [Adf]2 | %100
 A,2 [A^cg]2 [Acg]2 | E2 [A^cg]2 [Acg]2 | [DAdf]2 D2 ^C2 | =C2 B,2 _B,2 | A,2 z2 z2 | %105
 [DAcf]2 z2 z2 | G,2 [GBg]2 [GBg]2 | B,2 [GBg]2 [GBg]2 | C2 [Ace]2 [Ace]2 | A,2 [Ace]2 [Ace]2 | %110
 D2 [Acf]2 [Acf]2 | F,2 [Acf]2 [Acf]2 | G,2 [GBg]2 [GBg]2 | B,2 [GBg]2 [GBg]2 | %114
 G,2 [GB=f]2 [GBf]2 | D2 [GB=f]2 [GBf]2 | C2 [Gce]2 [Gce]2 | ^C2 [G^ce]2 [Gce]2 | %118
 D2 [G=cf]2 [Gcf]2 | F,2 [Acf]2 [Acf]2 ||!p! G,2 [GBg]2 [GBg]2 | A,2 [Acf]2 [Acf]2 | %122
 B,2 [GB=f]2 [GBf]2 | C2 [Gce]2 [Gce]2 | E2 [GBg]2 [GBg]2 | _E2 D2 ^C2 | D2 [GBg]2 [GBg]2 | %127
 D2 [Acf]2 [Acf]2 | G,2 [GBg]2 [GBg]2 | A,2 [Acf]2 [Acf]2 | G,2 [Gce]2 [Gce]2 | G,2 [Acg]2 [Acg]2 | %132
 D2 [GBg]2 [GBg]2 | B,2 [GBg]2 [GBg]2 | C2 [Ace]2 [Ace]2 | D2 [Acf]2 [Acf]2 | G,2 [Bdg]2 [Bdg]2 | %137
 G,2 [GBg]2 [GBg]2 | B,2 [GBg]2 [GBg]2 | C2 [Gce]2 [Gce]2 | D2 [GBg]2 [GBg]2 | G,2 [GBg]2 [GBg]2 | %142
 B,2 [GBg]2 [GBg]2 | C2 [Gce]2 [Gce]2 | [DGBg]2 B,2 E2 | E2 A2 G2 | c2 B2 e2 |!f! d2 e2 _e2 | %148
 d2 ^c2 =c2 | B2 A2 G2 | F2 E2 D2 | [G,G]2 z2 z2 | E2 D2 B,2 | G,2 z2 z2 | [G,B,DGBg]2 z4 | %155
 !fermata![G,G]6 |] %156

